svg/development/inspect_fill.svg

<?xml version="1.0" encoding="UTF-8"?>
<svg width="24px" height="24px" viewBox="0 0 24 24" version="1.1" xmlns="http://www.w3.org/2000/svg" xmlns:xlink="http://www.w3.org/1999/xlink">
    <title>inspect_fill</title>
    <g id="Icon" stroke="none" stroke-width="1" fill="none" fill-rule="evenodd">
        <g id="Development" transform="translate(-96.000000, -144.000000)" fill-rule="nonzero">
            <g id="inspect_fill" transform="translate(96.000000, 144.000000)">
                <path d="M24,0 L24,24 L0,24 L0,0 L24,0 Z M12.5935,23.2578 L12.5819,23.2595 L12.5109,23.295 L12.4919,23.2987 L12.4767,23.295 L12.4057,23.2595 C12.3958,23.2564 12.387,23.259 12.3821,23.2649 L12.378,23.2758 L12.3609,23.7031 L12.3659,23.7235 L12.3769,23.7357 L12.4805,23.8097 L12.4953,23.8136 L12.5071,23.8097 L12.6107,23.7357 L12.6233,23.7197 L12.6267,23.7031 L12.6096,23.2758 C12.6076,23.2657 12.601,23.2593 12.5935,23.2578 Z M12.8584,23.1453 L12.8445,23.1473 L12.6598,23.2397 L12.6499,23.2499 L12.6472,23.2611 L12.6651,23.6906 L12.6699,23.7034 L12.6784,23.7105 L12.8793,23.8032 C12.8914,23.8069 12.9022,23.803 12.9078,23.7952 L12.9118,23.7812 L12.8777,23.1665 C12.8753,23.1546 12.8674,23.147 12.8584,23.1453 Z M12.143,23.1473 C12.1332,23.1424 12.1222,23.1453 12.1156,23.1526 L12.1099,23.1665 L12.0758,23.7812 C12.0751,23.7927 12.0828,23.8019 12.0926,23.8046 L12.1083,23.8032 L12.3092,23.7105 L12.3186,23.7024 L12.3225,23.6906 L12.3404,23.2611 L12.3372,23.2485 L12.3278,23.2397 L12.143,23.1473 Z" id="MIngCute"></path>
                <path d="M10.611,10.611 C10.9026,10.3194 11.3434,10.2367 11.7209,10.4028 L20.5597,14.2919 C20.9474,14.4625 21.1856,14.8589 21.1542,15.2812 C21.1228,15.7038 20.8287,16.0606 20.4201,16.172 L17.6334,16.9318 C17.2917,17.025 17.0248,17.2919 16.9317,17.6335 L16.172,20.42 C16.0606,20.8287 15.7037,21.1228 15.2813,21.1542 C14.8589,21.1856 14.4625,20.9474 14.2919,20.5597 L10.4028,11.7208 C10.2367,11.3434 10.3194,10.9027 10.611,10.611 Z M17,3 C18.6569,3 20,4.34315 20,6 L20,11.8605 L12.5262,8.57201 C11.3937,8.07373 10.0715,8.32178 9.19663,9.19664 C8.32177,10.0715 8.07372,11.3938 8.57203,12.5262 L11.8605,20 L6,20 C4.34315,20 3,18.6569 3,17 L3,6 C3,4.34315 4.34315,3 6,3 L17,3 Z M19.6197,18.4631 C19.3487,18.9473 18.9473,19.3487 18.463,19.6197 L18.7109,18.7109 L19.6197,18.4631 Z" id="形状" fill="#09244B"></path>
            </g>
        </g>
    </g>
</svg>

<svg xmlns="http://www.w3.org/2000/svg" width="24" height="24"><g fill="none" fill-rule="nonzero"><path d="M24 0v24H0V0h24ZM12.594 23.258l-.012.002-.071.035-.02.004-.014-.004-.071-.036c-.01-.003-.019 0-.024.006l-.004.01-.017.428.005.02.01.013.104.074.015.004.012-.004.104-.074.012-.016.004-.017-.017-.427c-.002-.01-.009-.017-.016-.018Zm.264-.113-.014.002-.184.093-.01.01-.003.011.018.43.005.012.008.008.201.092c.012.004.023 0 .029-.008l.004-.014-.034-.614c-.003-.012-.01-.02-.02-.022Zm-.715.002a.023.023 0 0 0-.027.006l-.006.014-.034.614c0 .012.007.02.017.024l.015-.002.201-.093.01-.008.003-.011.018-.43-.003-.012-.01-.01-.184-.092Z"/><path fill="#09244B" d="M10.611 10.611a1 1 0 0 1 1.11-.208l8.839 3.889a1 1 0 0 1-.14 1.88l-2.787.76a1 1 0 0 0-.701.702l-.76 2.786a1 1 0 0 1-1.88.14l-3.89-8.84a1 1 0 0 1 .209-1.109ZM17 3a3 3 0 0 1 3 3v5.86l-7.474-3.288a3 3 0 0 0-3.954 3.954L11.861 20H6a3 3 0 0 1-3-3V6a3 3 0 0 1 3-3h11Zm2.62 15.463a3.014 3.014 0 0 1-1.157 1.157l.248-.91.909-.247Z"/></g></svg>
